svg/fluentui-system-icons/ic_fluent_share_28_filled.svg

<svg width="28" height="28" viewBox="0 0 28 28" fill="none" xmlns="http://www.w3.org/2000/svg">
<path d="M18.27 3.2105L25.77 10.4605C25.8426 10.5305 25.9003 10.6143 25.9398 10.7071C25.9792 10.7999 25.9995 10.8997 25.9995 11.0005C25.9995 11.1013 25.9792 11.2011 25.9398 11.2939C25.9003 11.3867 25.8426 11.4705 25.77 11.5405L18.27 18.7905C18.2014 18.8581 18.1202 18.9114 18.031 18.9474C17.9417 18.9835 17.8462 19.0015 17.75 19.0005C17.6502 19.0008 17.5515 18.9804 17.46 18.9405C17.324 18.8835 17.2078 18.7876 17.126 18.6649C17.0441 18.5421 17.0003 18.398 17 18.2505V14.5105C10.3 14.7805 7.48 18.5305 7.36 18.6905C7.26453 18.8162 7.13275 18.9095 6.98251 18.9577C6.83226 19.006 6.67081 19.007 6.52 18.9605C6.36957 18.912 6.2383 18.8173 6.14492 18.6898C6.05153 18.5623 6.00081 18.4085 6 18.2505C6 10.2305 12.59 7.7705 17 7.5205V3.7505C17.0003 3.603 17.0441 3.45887 17.126 3.33614C17.2078 3.21341 17.324 3.11754 17.46 3.0605C17.5947 3.00242 17.7436 2.98566 17.8878 3.01237C18.032 3.03908 18.1651 3.10804 18.27 3.2105ZM7.75 4.00049C5.12665 4.00049 3 6.12714 3 8.75049V20.2505C3 22.8738 5.12665 25.0005 7.75 25.0005H19.25C21.8734 25.0005 24 22.8738 24 20.2505V19.7505C24 19.3363 23.6642 19.0005 23.25 19.0005C22.8358 19.0005 22.5 19.3363 22.5 19.7505V20.2505C22.5 22.0454 21.0449 23.5005 19.25 23.5005H7.75C5.95507 23.5005 4.5 22.0454 4.5 20.2505V8.75049C4.5 6.95556 5.95507 5.50049 7.75 5.50049H12.25C12.6642 5.50049 13 5.1647 13 4.75049C13 4.33627 12.6642 4.00049 12.25 4.00049H7.75Z" fill="#212121"/>
</svg>

<svg xmlns="http://www.w3.org/2000/svg" width="28" height="28"><path d="m18.27 3.21 7.5 7.25a.751.751 0 0 1 0 1.08l-7.5 7.25a.73.73 0 0 1-.52.21.75.75 0 0 1-.75-.75v-3.74c-6.7.27-9.52 4.02-9.64 4.18a.77.77 0 0 1-.84.27.75.75 0 0 1-.52-.71c0-8.02 6.59-10.48 11-10.73V3.75a.75.75 0 0 1 .46-.69.74.74 0 0 1 .81.15ZM7.75 4A4.75 4.75 0 0 0 3 8.75v11.5A4.75 4.75 0 0 0 7.75 25h11.5A4.75 4.75 0 0 0 24 20.25v-.5a.75.75 0 0 0-1.5 0v.5a3.25 3.25 0 0 1-3.25 3.25H7.75a3.25 3.25 0 0 1-3.25-3.25V8.75A3.25 3.25 0 0 1 7.75 5.5h4.5a.75.75 0 0 0 0-1.5h-4.5Z"/></svg>
